!!!COM: Palestrina, Giovanni Perluigi da
!!!OPR: Missa Eripe me de inimicis
!!!OTL: Agnus I
**kern	**kern	**kern	**kern	**kern
*Ibass	*Itenor	*Itenor	*Icalto	*Icant
!Bassus	!Tenor 2	!Tenor 1	!Altus	!Cantus
*clefF4	*clefGv2	*clefGv2	*clefG2	*clefG2
*k[]	*k[]	*k[]	*k[]	*k[]
*D:dor	*D:dor	*D:dor	*D:dor	*D:dor
*M4/2	*M4/2	*M4/2	*M4/2	*M4/2
=1	=1	=1	=1	=1
0r	0r	0r	0r	1a
.	.	.	.	1a
=2	=2	=2	=2	=2
0r	0r	1r	1d	2.dd
.	.	.	.	4ee
.	.	1d	1d	2ff
.	.	.	.	2dd
=3	=3	=3	=3	=3
0r	0r	1d	2.a	1ff
.	.	.	4b	.
.	.	2.a	2cc	4ee
.	.	.	.	4dd
.	.	.	2a	4cc
.	.	4g	.	4b
=4	=4	=4	=4	=4
0r	0r	2f	2cc	2a
.	.	2d	2.b	2dd
.	.	1f	.	2cc
.	.	.	4a	.
.	.	.	[2a	4b
.	.	.	.	4a
=5	=5	=5	=5	=5
0r	1r	2.e	2a]	2b
.	.	.	2g#	1ee
.	.	4d	.	.
.	1A	2c	[1a	.
.	.	2f	.	[2dd
=6	=6	=6	=6	=6
1r	1A	1e	0a]	2dd]
.	.	.	.	2cc
1D	2.d	4d	.	2.ff
.	.	4e	.	.
.	.	4f	.	.
.	4e	4g	.	4ee
=7	=7	=7	=7	=7
1D	2f	1a	2r	4dd
.	.	.	.	4cc
.	2d	.	2.a	2dd
2.A	2f	1r	.	2.cc
.	.	.	4b	.
.	[2e	.	2cc	.
4B	.	.	.	4dd
=8	=8	=8	=8	=8
2c	4e]	1A	2a	0ee
.	4d	.	.	.
2A	4c	.	2.cc	.
.	4d	.	.	.
1c	4e	1A	.	.
.	4f	.	4b	.
.	[2e	.	[2a	.
=9	=9	=9	=9	=9
1B-	4e]	2.d	2a]	0r
.	4d	.	.	.
.	1d	.	2g	.
.	.	4e	.	.
1A	.	2f	1a	.
.	2c#	2e	.	.
=10	=10	=10	=10	=10
1D	2.d	2.f	0r	1a
.	4e	4e	.	.
1r	4f	2d	.	1a
.	4g	.	.	.
.	[2a	2c	.	.
=11	=11	=11	=11	=11
1r	2a]	1B-	1d	2.dd
.	2g	.	.	.
.	.	.	.	4ee
1D	4a	2A	1d	2ff
.	4g	.	.	.
.	4f	[2d	.	2dd
.	4e	.	.	.
=12	=12	=12	=12	=12
1D	1d	4d]	2.a	1ff
.	.	4e	.	.
.	.	2f	.	.
.	.	.	4b	.
2.A	1r	2c	2cc	1ee
.	.	[2e	[2a	.
4B	.	.	.	.
=13	=13	=13	=13	=13
2c	1A	4e]	2a]	2.cc
.	.	8d	.	.
.	.	8e	.	.
2A	.	2f	2.cc	.
.	.	.	.	4dd
2.c	1A	2.e	.	2ee
.	.	.	4b	.
.	.	.	4a	[2cc
4B	.	4d	4g	.
=14	=14	=14	=14	=14
1A	2.e	4c	2a	4cc]
.	.	4B	.	4dd
.	.	2c	1e	2.ee
.	4f	.	.	.
2E	2g	2B	.	.
.	.	.	.	4dd
2A	2e	2A	[2cc	4cc
.	.	.	.	4b
=15	=15	=15	=15	=15
1F	1f	2r	2cc]	2a
.	.	2a	2a	1dd
2G	1e	2g	2b-	.
2A	.	2e	2a	2cc#
=16	=16	=16	=16	=16
1D	2r	1f	1a	2dd
.	2a	.	.	2a
1r	2g	2e	1r	2b
.	2e	2c	.	2cc
=17	=17	=17	=17	=17
2r	1f	1d	1r	2a
2d	.	.	.	1b-
2c	1e	1A	2r	.
2A	.	.	2a	[2a
=18	=18	=18	=18	=18
1B-	1d	2r	2f	2a]
.	.	2d	2d	2g
2A	2r	2c	2e	1a
2F	2a	2A	2f	.
=19	=19	=19	=19	=19
2G	2g	2B	2.e	0r
1A	2e	2c	.	.
.	.	.	4d	.
.	2f	2A	2c	.
2G	[2e	2B	2B	.
=20	=20	=20	=20	=20
2.F	2e]	2c	2A	1r
.	1d	2d	2a	.
8E	.	.	.	.
8D	.	.	.	.
1E	.	1G	2g	2r
.	2c#	.	2e	2gg
=21	=21	=21	=21	=21
0D	0d	1A	2.f	2ff
.	.	.	.	2dd
.	.	.	4g	.
.	.	2r	4a	1ff
.	.	.	4g	.
.	.	2d	4a	.
.	.	.	4b	.
=22	=22	=22	=22	=22
0r	2r	2c	1cc	2ee
.	2a	2A	.	2cc
.	2g	2B	2b	2dd
.	2e	2c	[2a	[2ee
=23	=23	=23	=23	=23
0r	1f	1d	2a]	2ee]
.	.	.	2.b	2dd
.	2e	1A	.	2.cc
.	.	.	4a	.
.	2c	.	[2a	.
.	.	.	.	8b
.	.	.	.	8a
=24	=24	=24	=24	=24
1r	2d	0r	2a]	1b
.	2e	.	2g#	.
2r	2A	.	1a	[1a
2d	2f	.	.	.
=25	=25	=25	=25	=25
2c	2e	0r	2r	1a]
2A	2c	.	2a	.
1B-	4d	.	2f	2r
.	4e	.	.	.
.	4f	.	2d	2dd
.	4g	.	.	.
=26	=26	=26	=26	=26
2A	1a	2r	1f	2cc
2F	.	2a	.	2a
2G	1r	2g	1e	2b
2A	.	2e	.	2cc#
=27	=27	=27	=27	=27
1D	2r	1f	2d	1dd
.	2d	.	4A	.
.	.	.	4B	.
1A	2c	2e	4c	2.ee
.	.	.	4d	.
.	2A	2c	4e	.
.	.	.	4f	8dd
.	.	.	.	8cc
=28	=28	=28	=28	=28
2G	2B	2d	1g	2b
2E	2c	1e	.	4g
.	.	.	.	4a
1G	2B	.	1g	4b
.	.	.	.	4cc
.	2B	2d	.	[2b
=29	=29	=29	=29	=29
1A	1e	2.c	2r	4b]
.	.	.	.	4a
.	.	.	2e	1a
.	.	8B	.	.
.	.	8A	.	.
1E	1r	1B	2e	.
.	.	.	2e	2g#
=30	=30	=30	=30	=30
2r	2r	0A	0c	1a
2F	2a	.	.	.
2F	2a	.	.	2r
2F	2a	.	.	2a
=31	=31	=31	=31	=31
4D	1.f	2r	1d	2a
4E	.	.	.	.
4F	.	2a	.	2a
4G	.	.	.	.
2.A	.	2a	1c	[1cc
.	4e	2a	.	.
4B	4d	.	.	.
=32	=32	=32	=32	=32
2c	2e	2.g	1r	2cc]
2G	1d	.	.	2b-
.	.	4f	.	.
1A	.	1e	2r	1a
.	2c#	.	2a	.
=33	=33	=33	=33	=33
1D	2d	1f	2a	2r
.	2A	.	2a	2dd
1r	1B-	1d	[1f	2dd
.	.	.	.	2dd
=34	=34	=34	=34	=34
0r	0A	2r	2f]	1.cc
.	.	2a	4e	.
.	.	.	4d	.
.	.	2a	2e	.
.	.	2a	2f	4b
.	.	.	.	4a
=35	=35	=35	=35	=35
1r	0r	1.g	2e	2b
.	.	.	2c	2cc
2r	.	.	1d	[1a
2d	.	4f	.	.
.	.	4e	.	.
=36	=36	=36	=36	=36
2d	2r	1f	0r	1a]
2d	2a	.	.	.
[1c	2a	2e	.	2r
.	2a	2A	.	2ee
=37	=37	=37	=37	=37
2c]	2g	1c	0r	2ee
4B-	1a	.	.	2ee
4A	.	.	.	.
1B-	.	1d	.	[1dd
.	2g	.	.	.
=38	=38	=38	=38	=38
0A	2f	1r	2r	2dd]
.	4e	.	2a	4cc
.	4d	.	.	4b
.	1e	2r	2a	1cc
.	.	2e	2a	.
=39	=39	=39	=39	=39
1E	1r	2e	1.g	2.b
.	.	2e	.	.
.	.	.	.	4cc
1r	2r	[1d	.	2.dd
.	2a	.	4f	.
.	.	.	4e	4cc
=40	=40	=40	=40	=40
0r	2a	2d]	2f	4a
.	.	.	.	4b
.	2a	4c	1e	1cc
.	.	4B	.	.
.	1g	2c	.	.
.	.	2G	[2d	2b
=41	=41	=41	=41	=41
1r	2f	0A	2d]	1a
.	4e	.	4c	.
.	4d	.	4B	.
1A	2.e	.	4c	2r
.	.	.	4B	.
.	.	.	4A	2cc
.	4d	.	4B	.
=42	=42	=42	=42	=42
2A	4c	1e	4c	2cc
.	4B	.	4d	.
2A	2A	.	4e	2cc
.	.	.	4f	.
[1G	[1B	2e	1g	2.b
.	.	2e	.	.
.	.	.	.	4cc
=43	=43	=43	=43	=43
2G]	2B]	1.d	2r	1dd
4F	2.A	.	2a	.
4E	.	.	.	.
1F	.	.	2a	1r
.	4B	.	.	.
.	4c	[2c	2a	.
.	4d	.	.	.
=44	=44	=44	=44	=44
1E	1e	2c]	2g#	2r
.	.	4B	1a	2ee
.	.	4A	.	.
1E	2r	1B	.	2ee
.	2e	.	2g#	2ee
=45	=45	=45	=45	=45
2r	2e	[0A	[0a	2.cc
2.A	2e	.	.	.
.	.	.	.	4dd
.	1c	.	.	2ee
4G	.	.	.	.
4F	.	.	.	[2ff
4E	.	.	.	.
=46	=46	=46	=46	=46
2D	2d	0A]	0a]	2ff]
2C#	2e	.	.	2ee
1D	1f	.	.	1dd
=47	=47	=47	=47	=47
[0A	[0e	[0A	[0a	[0cc#
=48	=48	=48	=48	=48
0A]	0e]	0A]	0a]	0cc#]
==	==	==	==	==
*-	*-	*-	*-	*-
!!!CDT: 1525/^1526/-1594/2/2
!!!OCY: Italia
!!!AGN: Mass (Parody)
!!!AST: renaissance, vocal
!!!ASW: Motet 1559 (Maillard)
!!!PWK: Masses, Book 4
!!!RNB: Cadence finals: A
!!!YOR: Le Opere Complete, v. 10, p. 79
!!!YOO: Rome, Italy: Fratelli Scalera
!!!END: 1992//
!!!EED: John Miller
!!!YEC: Copyright 2000, John Miller
!!!YEN: United States of America
!!!YEM: Rights to all derivative electronic formats reserved.
!!!YEM: Refer to licensing agreement for further details.
!!!YEM: This file must be accompanied by the licensing agreement.
!!!YEM: A copy of the licensing agreement may be found at http://www.music-cog.ohio-state.edu/HumdrumDatabases/Palestrina/license.txt
!!!EMD: converted to Humdrum by Bret Aarden
